src/assets/Imgs/profile/Twitter.svg

<svg fill="none" height="32" viewBox="0 0 32 32" width="32" xmlns="http://www.w3.org/2000/svg"><rect fill="#1da1f2" height="32" rx="8" width="32"/><path d="m24 11.5c-.6.3-1.2.4-1.9.5.7-.4 1.2-1 1.4-1.8-.6.4-1.3.6-2.1.8-.6-.6-1.5-1-2.4-1-2.1 0-3.7 2-3.2 4-2.7-.1-5.1-1.4-6.8-3.4-.9 1.5-.4 3.4 1 4.4-.5 0-1-.2-1.5-.4 0 1.5 1.1 2.9 2.6 3.3-.5.1-1 .2-1.5.1.4 1.3 1.6 2.3 3.1 2.3-1.2.9-3 1.4-4.7 1.2 1.5.9 3.2 1.5 5 1.5 6.1 0 9.5-5.1 9.3-9.8.7-.4 1.3-1 1.7-1.7z" fill="#fff"/></svg>

<svg width="32" height="32" viewBox="0 0 32 32" fill="none" xmlns="http://www.w3.org/2000/svg">
<g id="Twitter">
<rect id="Rectangle 2058" width="32" height="32" rx="8" fill="#1DA1F2"/>
<path id="twitter" d="M24 11.5C23.4 11.8 22.8 11.9 22.1 12C22.8 11.6 23.3 11 23.5 10.2C22.9 10.6 22.2 10.8 21.4 11C20.8 10.4 19.9 10 19 10C16.9 10 15.3 12 15.8 14C13.1 13.9 10.7 12.6 9 10.6C8.1 12.1 8.6 14 10 15C9.5 15 9 14.8 8.5 14.6C8.5 16.1 9.6 17.5 11.1 17.9C10.6 18 10.1 18.1 9.6 18C10 19.3 11.2 20.3 12.7 20.3C11.5 21.2 9.7 21.7 8 21.5C9.5 22.4 11.2 23 13 23C19.1 23 22.5 17.9 22.3 13.2C23 12.8 23.6 12.2 24 11.5Z" fill="white"/>
</g>
</svg>
